src/assets/icons/team.svg

<?xml version="1.0" encoding="UTF-8"?>
<svg width="16px" height="16px" viewBox="0 0 16 16" version="1.1" xmlns="http://www.w3.org/2000/svg" xmlns:xlink="http://www.w3.org/1999/xlink">
    <!-- Generator: Sketch 51.1 (57501) - http://www.bohemiancoding.com/sketch -->
    <title>icons/16/team</title>
    <desc>Created with Sketch.</desc>
    <defs>
        <path d="M11.1449602,7.74914694 C10.2632561,7.28557388 9.64729694,6.22910592 9.64729694,5 C9.64729694,3.34314575 10.7665851,2 12.1472969,2 C13.5280088,2 14.6472969,3.34314575 14.6472969,5 C14.6472969,6.23127635 14.0291605,7.28930449 13.1449602,7.75159721 L13.1449602,9 L14.2502552,9.55264747 C14.7402304,9.79763508 15.3452468,10.4005731 15.5923128,10.8947051 L15.6976077,11.1052949 C15.9425953,11.5952702 15.6985747,12 15.1479301,12 L9.14199039,12 C8.59799656,12 8.3452468,11.5994269 8.59231278,11.1052949 L8.69760772,10.8947051 C8.94259533,10.4047298 9.54553335,9.79971345 10.0396653,9.55264747 L11.1449602,9 L11.1449602,7.74914694 Z M4.64729694,10.8008433 C3.48210456,10.3203675 2.64729694,9.02392196 2.64729694,7.5 C2.64729694,5.56700338 3.99044269,4 5.64729694,4 C7.30415119,4 8.64729694,5.56700338 8.64729694,7.5 C8.64729694,9.02392196 7.81248931,10.3203675 6.64729694,10.8008433 L6.64729694,12 L8.69807819,12.6835938 C9.23015979,12.8609543 9.84758349,13.4005731 10.0946495,13.8947051 L10.1999444,14.1052949 C10.444932,14.5952702 10.2016423,15 9.65189937,15 L1.64269451,15 C1.10296133,15 0.847583487,14.5994269 1.09464947,14.1052949 L1.19994441,13.8947051 C1.44493202,13.4047298 2.07227665,12.8583401 2.59651569,12.6835938 L4.64729694,12 L4.64729694,10.8008433 Z" id="path-1"></path>
    </defs>
    <g id="icons/16/team" stroke="none" stroke-width="1" fill="none" fill-rule="evenodd">
        <mask id="mask-2" fill="white">
            <use xlink:href="#path-1"></use>
        </mask>
        <use id="Mask" fill="#000000" xlink:href="#path-1"></use>
    </g>
</svg>

<?xml version="1.0" encoding="UTF-8"?>
<!-- Generator: Adobe Illustrator 22.1.0, SVG Export Plug-In . SVG Version: 6.00 Build 0)  -->
<svg version="1.1" id="Layer_1" xmlns="http://www.w3.org/2000/svg" xmlns:xlink="http://www.w3.org/1999/xlink" x="0px" y="0px" viewBox="0 0 16 16" style="enable-background:new 0 0 16 16;" xml:space="preserve">
<style type="text/css">
	.st0{fill:none;}
</style>
<title>icons/16/team</title>
<desc>Created with Sketch.</desc>
<g id="icons_x2F_16_x2F_team">
	<g id="Mask">
		<path id="path-1_1_" class="st0" d="M11.1,7.7C10.3,7.3,9.6,6.2,9.6,5c0-1.7,1.1-3,2.5-3s2.5,1.3,2.5,3c0,1.2-0.6,2.3-1.5,2.8V9    l1.1,0.6c0.5,0.2,1.1,0.8,1.3,1.3l0.1,0.2c0.2,0.5,0,0.9-0.5,0.9h-6c-0.5,0-0.8-0.4-0.5-0.9l0.1-0.2c0.2-0.5,0.8-1.1,1.3-1.3    L11.1,9V7.7z M4.6,10.8c-1.2-0.5-2-1.8-2-3.3C2.6,5.6,4,4,5.6,4s3,1.6,3,3.5c0,1.5-0.8,2.8-2,3.3V12l2.1,0.7    c0.5,0.2,1.1,0.7,1.4,1.2l0.1,0.2c0.2,0.5,0,0.9-0.5,0.9h-8c-0.5,0-0.8-0.4-0.5-0.9l0.1-0.2c0.2-0.5,0.9-1,1.4-1.2L4.6,12V10.8z"/>
	</g>
</g>
</svg>
